!!!OTL: Liebeshoffnung
!!!ARE: Europa, Mitteleuropa, Deutschland
!!!SCT: A0128A
!!!YEM: Copyright 1995, estate of Helmut Schaffrath.
**kern
*ICvox
*Ivox
!! Mixed meters:  4/2; 6/2
*M4/2
*k[b-]
*F:
{2f
=1
2f
2a
2g
2f
=2
1e
1d}
=3
{1c
=4
*M6/2
2f
1f
2a
1g
=5
*M4/2
1f
2r}
{2f
=6
2f
2a
2g
2f
=7
1e
1d}
=8
{1c
=9
*M6/2
2f
1f
2a
1g
=10
*M4/2
1f
2r}
{2f
=11
2a
2a
2b-
2b-
=12
1cc
1cc}
=13
{1b-
=14
*M6/2
2cc
1f
1a
2g
=15
*M4/2
1f
2r}
{2f
=16
2a
2a
2b-
2b-
=17
*M6/2
1cc
1f
2r}
{2g
=18
*M4/2
2a
2a
2g
2f
=19
1e
1d}
=20
{1c
=21
*M6/2
2f
1f
2a
1g
=22
1.f}
==
!!!AGN: Romanze, Ballade, Lied
!! Locheimer Liederbuch (Hs. c. 1450) No. 7.
!!!ONB: ESAC (Essen Associative Code) Database: ALTDEU
!!!AMT: irregular
!!!AIN: vox
!!!EED: Helmut Schaffrath
!!!EEV: 1.0
*-
